X:1
T:Jesu Hail! O God Most Holy
T:Jesu Hail! O God Most Holy
T:John Stainer
T:Translated from Latin by Henry Bramley, 1871
T:Public Domain Courtesy of the Cyber Hymnal™
T:Public Domain Courtesy of the Cyber Hymnal™
C:John Stainer
Z:Public Domain
Z:Courtesy of the Cyber Hymnal™
%%score ( 1 2 ) ( 3 4 )
L:1/8
Q:1/4=113
M:2/4
K:Eb
V:1 treble 
V:2 treble 
V:3 bass 
V:4 bass 
V:1
 [B,E]2 [DF]2 | [EB]2 [EA]2 | [EG]2 [DF]2 | [DF]2 E2 | [CF]3 [=EG] | [FA]2 [Ec]2 | [DB]2 [DA]2 | %7
w: 1.~Je- su|hail! O|God most|ho- ly,|Gen- tle|Lamb, an|In- fant|
w: 2.~To en-|rich my|de- so-|la- tion,|To re-|deem me|from dam-|
w: 3.~Low a-|based, where|brutes are|sleep- ing,|God’s be-|lov- èd|Son is|
w: 4.~Je- su,|Thine my|heart is|sole- ly;|Draw it,|take it|to Thee|
w: 5.~Hence let|i- dle|fan- cies|van- ish,|Hence all|e- vil|pas- sions|
 [DA]2 [EG]2 | [GB]2 [Gc]2 | [Gd]3 [Gd] | [Gd]2 [=Ac]2 | [GB]2 [^F=A]2 | [^Fe]2 [Gd]2 | %13
w: low- ly;|Born, great|God, a|hu- man|strang- er,|Laid with-|
w: na- tion,|Wrapt in|swath- ing|bands Thou|li- est,|Thou in|
w: weep- ing;|Judge su-|preme, true|God- head|shar- ing,|Sin- ner’s|
w: whol- ly;|With Thy|sac- red|fire il-|lume me,|Let it|
w: ban- ish;|Make me|like Thy-|self in|meek- ness,|Bind to|
 [=Ac]2 [GB]2 | [GB]2 [^F=A]2 x | G2 G2 ||"^Refrain" [EG]3 [DF] | [CE]2 [CE]2 | [FA]3 [EG] x | %19
w: in the|nar- row|man- ger:||||
w: want and|weak- ness|sigh- est:||||
w: like- ness|for us|wear- ing!|Might tran-|scend- ing,|weak- ness|
w: in- ward-|ly con-|sume me.||||
w: Thee my|hu- man|weak- ness,||||
 [EG]2 [DF]2 | [EB]2 [EB]2 | [EG]2 E2 | d3 z B | (B2 A2) | [Fc]2 [Fc]2 | [F=B]2 [Fc]2 | %26
w: |||||||
w: |||||||
w: blend- ing,|Great- ness|ben- ding|from the|sky; *|Love un-|end- ing,|
w: |||||||
w: |||||||
 [Fd]2 [FG]2 | [Ee]2 [Ae]2 | [Ge]4 | ([EG]2 [DF]2) | !fermata!E4 | [Ge]4 | g2 z x3 | [Ge]4 |] %34
w: ||||||||
w: ||||||||
w: man be-|friend- ing,|God|most *|High,|God|most|High.|
w: ||||||||
w: ||||||||
V:2
 x4 | x4 | x4 | x2 E2 | x4 | x4 | x4 | x4 | x4 | x4 | x4 | x4 | x4 | x4 | x5 | G2 G2 || x4 | x4 | %18
 x5 | x4 | x4 | x2 E2 | E2 =E2 x | F4 | x4 | x4 | x4 | x4 | x4 | x4 | E4 | x4 | B3 (f2 A) | x4 |] %34
V:3
 [E,G,]2 [E,A,]2 | [E,G,]2 [C,A,]2 | [B,,B,]2 [B,,A,]2 | [C,A,]2 [C,G,]2 | [A,C]3 [G,B,] | %5
 [F,A,]2 [A,,G,]2 | [B,,F,]2 [B,,B,]2 | [E,B,]2 [E,B,]2 | [E,G,]2 [E,=A,]2 | [B,,B,]3 [B,,B,] | %10
 [C,E]2 [C,E]2 | [D,D]2 [D,D]2 | [=A,,C]2 [A,,D]2 | [C,E]2 [C,E]2 | D3 z C | [G,B,]2 [G,B,]2 || %16
 [E,B,]3 [E,B,] | [A,C]2 [A,C]2 | C3 (z C) | B,2 [A,B,]2 | [G,B,]2 [G,B,]2 | C2 C2 | %22
 [A,C]2 [G,C]2 x | [F,C]4 | [A,C]2 [A,C]2 | [A,D]2 [A,C]2 | [G,=B,]2 [G,B,]2 | C2 [CE]2 | [B,E]4 | %29
 (B,2 A,2) | !fermata![E,G,]4 | [B,E]4 | (E2 D2) x2 | [E,E]4 |] %34
V:4
 x4 | x4 | x4 | x4 | x4 | x4 | x4 | x4 | x4 | x4 | x4 | x4 | x4 | x4 | D,2 D,2 x | x4 || x4 | x4 | %18
 F,2 F,2 x | B,2 x2 | x4 | C2 C2 | x5 | x4 | x4 | x4 | x4 | C2 x2 | x4 | B,,4 | x4 | x4 | B,,4 x2 | %33
 x4 |] %34

